X: 1
T: Sonata Nr 2 in Bb
T: \`a deux fl\^utes \`a bec
C: Georg Philip Telemann
N: Published in Hamburg in 1727
M: 3/8
L: 1/16
P: Soave
K: Bb
V: 1
b2 |\
  Ta3bc'2 | f2bab2- | b2agfe | dedcdB | f2cde2- | e2dcdB  | c2f2F2 | B2d2g2- | g2f=ef2 | z2f2b2- |
  b2aga2 | z2a2d'2- | d'2c'=bc'2- | c'2_bab2- | bc'Ta3g | gf=ede^f | gdg=f=ed | =ecdefc | dBccBc/B/ |
  ABAGA=B | c2gab2- | b2agaf | g2c2c'2- | c'2f'=e'f'2- | f'2=e'd'c'b | abTg3f | f2z4 | A2z4 | c2F2A2 |
  B2f'e'/d'/c'd' | b2f'e'/d'/e'f' | _af'/e'/d'c'ba | g2e'3g | f2d'3f | e2c'3e | dc=BAB^c | dAd=c=BA | =BGABc=b |
  c'FGgfg/f/ | egedec | BfdcdB | AfdBcA | GdBABG | F2c2f2- | f2ede2- | e2dcd2- | dbd2Tc2 |
  BfBABc | dAd2 zB | GdGFGA | BFB2 zG | ebedec | dedcd=e | f2cd_e2- | e2dcdB | c2F2A2 | BcTA3B |
  B2d'2g2- | g2f=ef2 | z2b2_e2- | e2dcd2 | z2g2c2- | c2BABc | TA3Bc2 | F2bab2- | b2agfe | def2F2 | B4 |]
V: 2
B2 | f2cde2- | e2dcdB | c2f2F2 | B4b2 | Ta3bc'2 | f2bab2- | b2agfe | dcBABc | dAd2 zc | Bcdcd=e |
  fcf2 z=e | d=efefg | a=eag^fe | ^fd=efgd | _ecddcd/c/ | =BGg2c'2 | c'2bab2- | b2aga2- | abTg4- |
  g2f=efg | =e3fg2 | c2f=ef2- | f2=edcB | AFagaf | g2c2=e2 | fgT=e3f | f2c'b/a/bc' | f2c'b/a/bc' | ec'/b/agfe |
  d2z4 | d2z4 | f2B2d2 | ebgfge | dbfefd | cgedec | =B2d2g2- | g2f=ef2- | f2_ede2- |
  efe2d2 | c2c'3e | d2b3d | c2a3c | B2g3B | A2AGA=B | cGc_BAG | AFGABa | bBFfef/e/ |
  d2d'2g2- | g2f=ef2 | z2b2_e2- | e2dcd2 | z2g2c2- | c2BABc | TA3Bc2 | F2bab2- | b2agfe | deTc3B |
  BfBABc | dAd2 zB | GdGFGA | BFB2 zG | ebedec | dedcd=e | f2cd_e2- | e2dcdB | c2F2a2 | bc'Ta3b | b4 |]

